svg/publishing/registrations.svg

<svg id="Layer_1" data-name="Layer 1" xmlns="http://www.w3.org/2000/svg" viewBox="0 0 16 16"><title>registrations</title><path d="M15,4.3H11.206L9.2,2.212a1.227,1.227,0,0,0,.076-.338v-.03A1.264,1.264,0,0,0,8.888.969a1.3,1.3,0,0,0-1.775,0,1.278,1.278,0,0,0-.385.907,1.266,1.266,0,0,0,.1.449L4.848,4.3H1a.5.5,0,0,0-.5.5V14.893a.5.5,0,0,0,.5.5H15a.5.5,0,0,0,.5-.5V4.8A.5.5,0,0,0,15,4.3ZM7.544,3.022A1.275,1.275,0,0,0,8,3.11a1.257,1.257,0,0,0,.544-.135L9.82,4.3H6.262ZM14.5,5.3v.93H1.5V5.3Zm-13,9.089V7.234h13v7.159ZM3.962,8.666a.5.5,0,0,1-.5.5h-.53a.5.5,0,0,1,0-1h.53A.5.5,0,0,1,3.962,8.666Zm0,1.447a.5.5,0,0,1-.5.5h-.53a.5.5,0,0,1,0-1h.53A.5.5,0,0,1,3.962,10.113Zm0,1.449a.5.5,0,0,1-.5.5h-.53a.5.5,0,0,1,0-1h.53A.5.5,0,0,1,3.962,11.562Zm0,1.448a.5.5,0,0,1-.5.5h-.53a.5.5,0,0,1,0-1h.53A.5.5,0,0,1,3.962,13.01ZM5.893,8.666a.5.5,0,0,1-.5.5H4.862a.5.5,0,0,1,0-1h.531A.5.5,0,0,1,5.893,8.666Zm0,1.447a.5.5,0,0,1-.5.5H4.862a.5.5,0,0,1,0-1h.531A.5.5,0,0,1,5.893,10.113Zm0,1.449a.5.5,0,0,1-.5.5H4.862a.5.5,0,0,1,0-1h.531A.5.5,0,0,1,5.893,11.562Zm0,1.448a.5.5,0,0,1-.5.5H4.862a.5.5,0,0,1,0-1h.531A.5.5,0,0,1,5.893,13.01ZM7.824,8.666a.5.5,0,0,1-.5.5H6.793a.5.5,0,1,1,0-1h.531A.5.5,0,0,1,7.824,8.666Zm0,1.447a.5.5,0,0,1-.5.5H6.793a.5.5,0,1,1,0-1h.531A.5.5,0,0,1,7.824,10.113Zm0,1.449a.5.5,0,0,1-.5.5H6.793a.5.5,0,0,1,0-1h.531A.5.5,0,0,1,7.824,11.562Zm0,1.448a.5.5,0,0,1-.5.5H6.793a.5.5,0,0,1,0-1h.531A.5.5,0,0,1,7.824,13.01ZM9.755,8.666a.5.5,0,0,1-.5.5h-.53a.5.5,0,1,1,0-1h.53A.5.5,0,0,1,9.755,8.666Zm0,1.447a.5.5,0,0,1-.5.5h-.53a.5.5,0,0,1,0-1h.53A.5.5,0,0,1,9.755,10.113Zm0,1.449a.5.5,0,0,1-.5.5h-.53a.5.5,0,0,1,0-1h.53A.5.5,0,0,1,9.755,11.562Zm1.931-2.9a.5.5,0,0,1-.5.5h-.531a.5.5,0,1,1,0-1h.531A.5.5,0,0,1,11.686,8.666Zm0,1.447a.5.5,0,0,1-.5.5h-.531a.5.5,0,0,1,0-1h.531A.5.5,0,0,1,11.686,10.113Zm0,1.449a.5.5,0,0,1-.5.5h-.531a.5.5,0,0,1,0-1h.531A.5.5,0,0,1,11.686,11.562Zm1.931-2.9a.5.5,0,0,1-.5.5h-.531a.5.5,0,0,1,0-1h.531A.5.5,0,0,1,13.617,8.666Zm0,1.447a.5.5,0,0,1-.5.5h-.531a.5.5,0,1,1,0-1h.531A.5.5,0,0,1,13.617,10.113Zm0,1.449a.5.5,0,0,1-.5.5h-.531a.5.5,0,0,1,0-1h.531A.5.5,0,0,1,13.617,11.562ZM9.755,13.01a.5.5,0,0,1-.5.5h-.53a.5.5,0,0,1,0-1h.53A.5.5,0,0,1,9.755,13.01Z"/></svg>

<svg xmlns="http://www.w3.org/2000/svg" viewBox="0 0 16 16"><title>registrations</title><g id="Layer_1" data-name="Layer 1"><path d="M15,15.39H1a.5.5,0,0,1-.5-.5V4.8A.5.5,0,0,1,1,4.3H15a.5.5,0,0,1,.5.5V14.89A.5.5,0,0,1,15,15.39Zm-13.5-1h13V5.3H1.5Z"/><path d="M5.05,5.3a.54.54,0,0,1-.35-.14.51.51,0,0,1,0-.71L7.12,2a.49.49,0,1,1,.7.7L5.41,5.16A.54.54,0,0,1,5.05,5.3Z"/><path d="M11,5.3a.51.51,0,0,1-.36-.15L8.27,2.69A.5.5,0,1,1,9,2l2.36,2.46a.49.49,0,0,1,0,.7A.47.47,0,0,1,11,5.3Z"/><path d="M8.77,1.86a.76.76,0,0,1-.23.53.77.77,0,0,1-1.08,0,.76.76,0,0,1-.23-.53.76.76,0,0,1,.23-.53.77.77,0,0,1,1.08,0A.76.76,0,0,1,8.77,1.86Z"/><path d="M8,3.11a1.29,1.29,0,0,1-.89-.36,1.25,1.25,0,0,1-.38-.88A1.26,1.26,0,0,1,7.11,1,1.3,1.3,0,0,1,8.89,1a1.29,1.29,0,0,1,.38.87v0A1.26,1.26,0,0,1,8,3.11Zm0-1.5a.26.26,0,0,0-.19.07.27.27,0,0,0-.08.19A.24.24,0,0,0,7.81,2a.28.28,0,0,0,.38,0,.23.23,0,0,0,.08-.17.21.21,0,0,0-.08-.17A.24.24,0,0,0,8,1.61Z"/><path d="M3.46,9.17H2.93a.51.51,0,0,1-.5-.5.5.5,0,0,1,.5-.5h.53a.5.5,0,0,1,.5.5A.5.5,0,0,1,3.46,9.17Z"/><path d="M3.46,10.61H2.93a.5.5,0,0,1-.5-.5.51.51,0,0,1,.5-.5h.53a.5.5,0,0,1,.5.5A.5.5,0,0,1,3.46,10.61Z"/><path d="M3.46,12.06H2.93a.5.5,0,0,1-.5-.5.51.51,0,0,1,.5-.5h.53a.5.5,0,0,1,.5.5A.5.5,0,0,1,3.46,12.06Z"/><path d="M3.46,13.51H2.93a.5.5,0,1,1,0-1h.53a.5.5,0,0,1,0,1Z"/><path d="M5.39,9.17H4.86a.51.51,0,0,1-.5-.5.5.5,0,0,1,.5-.5h.53a.5.5,0,0,1,.5.5A.5.5,0,0,1,5.39,9.17Z"/><path d="M5.39,10.61H4.86a.5.5,0,0,1-.5-.5.51.51,0,0,1,.5-.5h.53a.5.5,0,0,1,.5.5A.5.5,0,0,1,5.39,10.61Z"/><path d="M5.39,12.06H4.86a.5.5,0,0,1-.5-.5.51.51,0,0,1,.5-.5h.53a.5.5,0,0,1,.5.5A.5.5,0,0,1,5.39,12.06Z"/><path d="M5.39,13.51H4.86a.5.5,0,0,1,0-1h.53a.5.5,0,0,1,0,1Z"/><path d="M7.32,9.17H6.79a.51.51,0,0,1-.5-.5.5.5,0,0,1,.5-.5h.53a.5.5,0,0,1,.5.5A.5.5,0,0,1,7.32,9.17Z"/><path d="M7.32,10.61H6.79a.5.5,0,0,1-.5-.5.51.51,0,0,1,.5-.5h.53a.5.5,0,0,1,.5.5A.5.5,0,0,1,7.32,10.61Z"/><path d="M7.32,12.06H6.79a.5.5,0,0,1-.5-.5.51.51,0,0,1,.5-.5h.53a.5.5,0,0,1,.5.5A.5.5,0,0,1,7.32,12.06Z"/><path d="M7.32,13.51H6.79a.5.5,0,0,1,0-1h.53a.5.5,0,0,1,0,1Z"/><path d="M9.25,9.17H8.72a.51.51,0,0,1-.5-.5.5.5,0,0,1,.5-.5h.53a.5.5,0,0,1,.5.5A.5.5,0,0,1,9.25,9.17Z"/><path d="M9.25,10.61H8.72a.5.5,0,0,1-.5-.5.51.51,0,0,1,.5-.5h.53a.5.5,0,0,1,.5.5A.5.5,0,0,1,9.25,10.61Z"/><path d="M9.25,12.06H8.72a.5.5,0,0,1-.5-.5.51.51,0,0,1,.5-.5h.53a.5.5,0,0,1,.5.5A.5.5,0,0,1,9.25,12.06Z"/><path d="M11.19,9.17h-.53a.5.5,0,0,1-.5-.5.5.5,0,0,1,.5-.5h.53a.5.5,0,0,1,.5.5A.51.51,0,0,1,11.19,9.17Z"/><path d="M11.19,10.61h-.53a.5.5,0,0,1-.5-.5.5.5,0,0,1,.5-.5h.53a.51.51,0,0,1,.5.5A.5.5,0,0,1,11.19,10.61Z"/><path d="M11.19,12.06h-.53a.5.5,0,0,1-.5-.5.5.5,0,0,1,.5-.5h.53a.51.51,0,0,1,.5.5A.5.5,0,0,1,11.19,12.06Z"/><path d="M13.12,9.17h-.53a.5.5,0,0,1-.5-.5.5.5,0,0,1,.5-.5h.53a.5.5,0,0,1,.5.5A.51.51,0,0,1,13.12,9.17Z"/><path d="M13.12,10.61h-.53a.5.5,0,0,1-.5-.5.5.5,0,0,1,.5-.5h.53a.51.51,0,0,1,.5.5A.5.5,0,0,1,13.12,10.61Z"/><path d="M13.12,12.06h-.53a.5.5,0,0,1-.5-.5.5.5,0,0,1,.5-.5h.53a.51.51,0,0,1,.5.5A.5.5,0,0,1,13.12,12.06Z"/><path d="M9.25,13.51H8.72a.5.5,0,0,1,0-1h.53a.5.5,0,0,1,0,1Z"/><path d="M15,7.23H1a.5.5,0,0,1-.5-.5.5.5,0,0,1,.5-.5H15a.5.5,0,0,1,.5.5A.5.5,0,0,1,15,7.23Z"/></g></svg>
